src/Images/logo.svg

<svg width="68" height="86" viewBox="0 0 68 86" fill="none" xmlns="http://www.w3.org/2000/svg">
<path d="M64 27.9648V1H1V84H64V27.9648Z" stroke="#5B4EF0" stroke-width="2" stroke-miterlimit="10"/>
<path d="M42.7821 85.056C28.8621 85.056 18.3981 74.112 18.3981 60.768C18.3981 47.04 28.7661 36.384 42.4941 36.384C50.3661 36.384 57.2781 40.416 61.2141 46.368L61.3101 16.032H67.2621V60.768C67.2621 74.4 56.5101 85.056 42.7821 85.056ZM42.7821 79.392C53.1501 79.392 61.3101 70.944 61.3101 60.768C61.3101 50.592 53.1501 42.048 42.7821 42.048C32.5101 42.048 24.3501 50.592 24.3501 60.768C24.3501 70.944 32.5101 79.392 42.7821 79.392Z" fill="white"/>
<path d="M24 59L67 59" stroke="white" stroke-width="5" stroke-miterlimit="10"/>
</svg>

<svg width="68" height="86" fill="none" xmlns="http://www.w3.org/2000/svg"><path d="M64 27.965V1H1v83h63V27.965z" stroke="#5B4EF0" stroke-width="2" stroke-miterlimit="10"/><path d="M42.782 85.056c-13.92 0-24.384-10.944-24.384-24.288 0-13.728 10.368-24.384 24.096-24.384 7.872 0 14.784 4.032 18.72 9.984l.096-30.336h5.952v44.736c0 13.632-10.752 24.288-24.48 24.288zm0-5.664c10.368 0 18.528-8.448 18.528-18.624 0-10.176-8.16-18.72-18.528-18.72-10.272 0-18.432 8.544-18.432 18.72 0 10.176 8.16 18.624 18.432 18.624z" fill="#fff"/><path d="M24 59h43" stroke="#fff" stroke-width="5" stroke-miterlimit="10"/></svg>
